X:1
T:SALLY ANN
L:1/8
M:2/2
I:linebreak $
K:A
V:1 treble nm="Voice" snm="Voice"
V:1
|: ef | a2 ab af e2 | f2- ff f4 | a2 f2 ec- c2 | e2- ee e2 ef |$ e2 c2 B2 A2 | B2 BB [Bc]4 | %7
 cBAc BAFE | FA-AB A2 ::$ AF | EFAB cBAc | B2 BA B4 | cBAc BAFE | FA-AB A4 |$ EFAB cBAc | %15
 B2 BA B2 cd | efed cABc | A2 AB A2 :| %18
